app/images/markers/numbered/6.svg

<svg height="46" viewBox="0 0 40 46" width="40" xmlns="http://www.w3.org/2000/svg"><g fill="none" fill-rule="evenodd"><path d="m20 46.037c1.732 0 3.412-6.257 5.015-6.67 8.618-2.227 14.985-10.054 14.985-19.367 0-11.046-8.954-20-20-20s-20 8.954-20 20c0 9.318 6.372 17.147 14.996 19.37 1.6.41 3.276 6.667 5.004 6.667z" fill="#000" fill-rule="nonzero"/><path d="m20 46.037c1.732 0 3.412-6.257 5.015-6.67 8.618-2.227 14.985-10.054 14.985-19.367 0-11.046-8.954-20-20-20s-20 8.954-20 20c0 9.318 6.372 17.147 14.996 19.37 1.6.41 3.276 6.667 5.004 6.667z" fill="#00a862"/><g transform="translate(11 8)"><path d="m17.688 2.35c-.108-.46-.587-1.65-1.5-1.65h-14.378c-.912 0-1.39 1.19-1.503 1.682l-.295 1.634c-.033.188.018.38.14.527.122.146.302.23.493.23h.824l1.158 16.44c.06.962.863 1.715 1.83 1.715h9.09c.967 0 1.77-.753 1.83-1.71l1.156-16.445h.826c.192 0 .372-.084.494-.23s.173-.34.14-.527l-.302-1.666z" fill="#fff" fill-rule="nonzero"/><path d="m7.15604493 12.0170898c.58821909-.710941 1.34146676-1.0664062 2.25976563-1.0664062.83789484 0 1.53189824.2761203 2.08203124.8283691.550133.5522489.8251953 1.2494262.8251953 2.0915528 0 .9860075-.3173796 1.7932097-.9521484 2.4216308s-1.45149242.942627-2.45019533.942627c-1.16797459 0-2.07991209-.4157673-2.73583985-1.2473145-.65592775-.8315471-.98388671-1.9878669-.98388671-3.4689941 0-1.6292399.37345004-2.89558469 1.12036132-3.79907228.74691129-.90348759 1.79532203-1.35522461 3.14526368-1.35522461.63476879 0 1.42187029.11425667 2.36132809.34277344v1.37109375c-.854822-.35970232-1.6207648-.53955078-2.29785153-.53955078-.75325898 0-1.33723751.30468445-1.75195313.9140625-.41471561.60937808-.62207031 1.46418718-.62207031 2.56445308zm3.28808597 2.1645508c0-.6390006-.140705-1.1446921-.4221192-1.5170898-.28141414-.3723977-.66332764-.5585938-1.14575193-.5585938-.46126532 0-.84952641.1692692-1.16479492.5078125-.3152685.3385434-.47290039.7574845-.47290039 1.256836 0 .6559277.15445809 1.1848938.46337891 1.586914.30892081.4020203.71305089.6030274 1.21240234.6030274.46549712 0 .8368313-.1703271 1.11401369-.5109864.2771824-.3406592.4157715-.796628.4157715-1.3679199z" fill="#4a4a4a"/></g></g></svg>

<?xml version="1.0" encoding="UTF-8"?>
<svg width="40px" height="46px" viewBox="0 0 40 46" version="1.1" xmlns="http://www.w3.org/2000/svg" xmlns:xlink="http://www.w3.org/1999/xlink">
    <!-- Generator: Sketch 47.1 (45422) - http://www.bohemiancoding.com/sketch -->
    <title>starbucks-marker</title>
    <desc>Created with Sketch.</desc>
    <defs></defs>
    <g id="Page-1" stroke="none" stroke-width="1" fill="none" fill-rule="evenodd">
        <g id="starbucks-marker">
            <g id="Group">
                <g id="b-link">
                    <g id="b">
                        <g id="path-1-link" fill-rule="nonzero" fill="#000000">
                            <path d="M20,46.037 C21.732,46.037 23.412,39.78 25.015,39.367 C33.633,37.14 40,29.313 40,20 C40,8.954 31.046,0 20,0 C8.954,0 0,8.954 0,20 C0,29.318 6.372,37.147 14.996,39.37 C16.596,39.78 18.272,46.037 20,46.037 Z" id="path-1"></path>
                        </g>
                        <g id="path-1-link" fill="#00A862">
                            <path d="M20,46.037 C21.732,46.037 23.412,39.78 25.015,39.367 C33.633,37.14 40,29.313 40,20 C40,8.954 31.046,0 20,0 C8.954,0 0,8.954 0,20 C0,29.318 6.372,37.147 14.996,39.37 C16.596,39.78 18.272,46.037 20,46.037 Z" id="path-1"></path>
                        </g>
                    </g>
                </g>
            </g>
            <g id="Group" transform="translate(11.000000, 8.000000)">
                <g id="d-link">
                    <path d="M17.688,2.35 C17.58,1.89 17.101,0.7 16.188,0.7 L1.81,0.7 C0.898,0.7 0.42,1.89 0.307,2.382 L0.012,4.016 C-0.021,4.204 0.03,4.396 0.152,4.543 C0.274,4.689 0.454,4.773 0.645,4.773 L1.469,4.773 L2.627,21.213 C2.687,22.175 3.49,22.928 4.457,22.928 L13.547,22.928 C14.514,22.928 15.317,22.175 15.377,21.218 L16.533,4.773 L17.359,4.773 C17.551,4.773 17.731,4.689 17.853,4.543 C17.975,4.397 18.026,4.203 17.993,4.016 L17.691,2.35 L17.688,2.35 Z" id="d" fill="#FFFFFF" fill-rule="nonzero"></path>
                    <path d="M7.15604493,12.0170898 C7.74426402,11.3061488 8.49751169,10.9506836 9.41581056,10.9506836 C10.2537054,10.9506836 10.9477088,11.2268039 11.4978418,11.7790527 C12.0479748,12.3313016 12.3230371,13.0284789 12.3230371,13.8706055 C12.3230371,14.856613 12.0056575,15.6638152 11.3708887,16.2922363 C10.7361199,16.9206574 9.91939628,17.2348633 8.92069337,17.2348633 C7.75271878,17.2348633 6.84078128,16.819096 6.18485352,15.9875488 C5.52892577,15.1560017 5.20096681,13.9996819 5.20096681,12.5185547 C5.20096681,10.8893148 5.57441685,9.62297001 6.32132813,8.71948242 C7.06823942,7.81599483 8.11665016,7.36425781 9.46659181,7.36425781 C10.1013606,7.36425781 10.8884621,7.47851448 11.8279199,7.70703125 L11.8279199,9.078125 C10.9730979,8.71842268 10.2071551,8.53857422 9.53006837,8.53857422 C8.77680939,8.53857422 8.19283086,8.84325867 7.77811524,9.45263672 C7.36339963,10.0620148 7.15604493,10.9168239 7.15604493,12.0170898 Z M10.4441309,14.1816406 C10.4441309,13.54264 10.3034259,13.0369485 10.0220117,12.6645508 C9.74059756,12.2921531 9.35868406,12.105957 8.87625977,12.105957 C8.41499445,12.105957 8.02673336,12.2752262 7.71146485,12.6137695 C7.39619635,12.9523129 7.23856446,13.371254 7.23856446,13.8706055 C7.23856446,14.5265332 7.39302255,15.0554993 7.70194337,15.4575195 C8.01086418,15.8595398 8.41499426,16.0605469 8.91434571,16.0605469 C9.37984283,16.0605469 9.75117701,15.8902198 10.0283594,15.5495605 C10.3055418,15.2089013 10.4441309,14.7529325 10.4441309,14.1816406 Z" id="6" fill="#4A4A4A"></path>
                </g>
            </g>
        </g>
    </g>
</svg>
